!!!ONB: MCCC : ICS0239_00 : Extracted Monophonic Melody
!!!COM: Saint-Saëns, Camille
!!!OTL: Thème varié
!!!SCT: Op.97
!!!ODT: 1894///
**kern
*staff1
*clefG2
*k[]
*C:
*M4/4
=3
4e
4g
4g
16f
8.e
=4
4d
4e
4e
16c
8.c
=5
4c
[4c
4c_
16c]
8.c
=6
4G
4A
4B[
16B]
8.d
=7
4e
4g[
8g]
8g
32g
32a
32g
32f#
32g
32a
32b
32cc
=8
32dd
32ee
32dd
32cc#
32dd
32ee
32ff
32ff#
32gg
32aa
32gg
32ff#
32gg
32aa
32bb-
32bb
32ccc
32ddd
32ccc
32bb
32ccc
32ddd
32eee
32fff
32ggg
32aaa
32ggg
32fff#
32ggg
32ggg#
32aaa
32bbb-
=9
32bbb
32cccc
32bbb
32aaa#
32bbb
32cccc
32bbb
32aaa#
32bbb
32gggg
32ffff#
32eeee
32eeee-
32dddd
32cccc#
32cccc
32bbb
32bbb-
32aaa
32ggg#
32ggg
32fff#
32aaa
32eee
32aaa
32eee-
32fff#
32ccc
32fff#
32bb
32eee-
32aa
=10
32eee-
32gg
32aa
32ff#
32aa
32ee
32ff#
32ee-
32ee-
32g
32a
32f#
32a
32e
32f#
32e-
32e-
32G
32A
32F#
32A
32E
32F#
32E-
32E-
32GG
32AA
32FF#
32AA
32EE
32FF#
32DD#
=11
32EE
32GG
32BB-
32C#
32E
32G
32B-
32c#
32e
32g
32b-
32cc#
32ee
32gg
32bb-
32ccc#
4eeee
4r
=12
32FF#
32AA
32C
32E-
32F#
32A
32c
32e-
32f#
32a
32cc
32ee-
32ff#
32aa
32ccc
32eee-
4ffff#
4r
=13
8r
64gg
64aa[
32aa]
64aa
64gg
32aa
64gg
64aa[
32aa]
48aa
48gg
48aa
64gg
64aa[
32aa]
64aa
64gg
32aa
64gg
64aa[
32aa]
64aa
64gg
32aa
64gg
64aa[
32aa]
64aa
64gg
32aa
64gg
64aa[
32aa]
64aa
64gg
32aa
48gg
48aa
48gg
48aa
48gg
48aa
=14
64gg
64aa[
32aa]
64aa
64gg
32aa
64gg
64aa[
32aa]
64aa
64gg
32aa
48gg
48aa
48gg
64aa
64gg
32aa
64gg
64aa[
32aa]
64aa
64gg
32aa
64gg
64aa[
32aa]
64aa
64gg
32aa
64gg
64aa[
32aa]
64aa
64gg
32aa
64gg
64aa[
32aa]
64aa
64gg
32aa
48gg
48aa
48gg
48aa
48gg
48aa
=15
64gg
64aa[
32aa]
64aa
64gg
32aa
64gg
64aa[
32aa]
64aa
64gg
32aa
48gg
48aa
48gg
64aa
64gg
32aa
64gg
64aa[
32aa]
64aa
64gg
32aa
64gg
64aa[
32aa]
64aa
64gg
32aa
64gg
64aa[
32aa]
64aa
64gg
32aa
64gg
64aa[
32aa]
64aa
64gg
32aa
48gg
48aa
48gg
48aa
48gg
48aa
=16
16ff#
16gg
16bb
16bb-
16gg
16gg#
16ccc
16bb
16gg#
16aa
16ccc#
16ccc
16aa
16bb-
16ddd
16ccc#
=17
16aa#
16bb
16eee-
16ddd
16bb
16ccc
16eee
16eee-
16ccc
16ccc#
16fff
16eee
16ccc#
16ddd
16fff#
16fff
=18
16ddd
16eee-
16ggg
16fff#
16ddd#
16eee
16ggg#
16ggg
16eee
16fff
16aaa
16ggg#
16eee#
16fff#
16bbb-
16aaa
=19
16fff#
16ggg
16bbb
16bbb-
16ggg
16ggg#
16cccc
16bbb
16ggg#
16aaa
16cccc#
16cccc
16aaa
16bbb-
16dddd
16cccc#
=20
16aaa#
16bbb
16eeee-
16dddd
16bbb
16cccc
16eeee
16eeee-
16cccc
16cccc#
16ffff
16eeee
16cccc#
16dddd
16ffff
16eeee
=21
16cccc#
16dddd
16ffff
16eeee
16cccc#
16dddd
16ffff
16eeee
16cccc#
16dddd
16ffff
16eeee
16cccc#
16dddd
16ffff
16eeee
=22
16cccc#
16dddd
16ffff
16eeee
16cccc#
16dddd
16ffff
16eeee
16cccc#
16dddd
16ffff
16eeee
16cccc#
16dddd
16ffff
16eeee
=23
16dddd
16cccc
16bbb
16aaa
16ggg
16fff
16eee
16ddd
16ccc
16bb
16aa
16gg
16ff
16ee
16dd
16cc
=24
16b
16a
16g
16f
16e
16d
16c
16B
2r
=25
4r
8d
8dd
4bb
8dd
8fff
=26
*M6/4
2.dddd
2.r
=27
*M4/4
4e
4g
4f
4e
=28
4d
4e
4c
4c
=29
2c
4B
4c
=30
4G
4A
4B
8c
8d
=31
4e
4g
4f
4e
=32
4a
4b
4cc
4dd
=33
4ee
8dd
8cc
4b
8a
8g#
=34
2.a
8a
8g
=35
8ee
8gg
8ggg
8ggg
8fff
8fff
4ccc
=36
8ddd
8ddd
8bb
8bb
4ccc
4ccc
=37
4ccc
4ccc
4gg
4gg
=38
16dd
16gg
8gg
8ff#
8gg
8bb
8ccc
8ddd
8ddd
=39
8ccc
8ccc
8ggg
8ggg
8ccc
8ccc#
8eee
8eee
=40
4bb
8ggg#
8ggg#
8cccc
8cccc
4aaa
=41
8ggg#
8aaa
8dddd
8cccc
4bbb
8aaa
8ggg#
=42
2.aaa
4a
=43
4b-
2b
4b
=44
2.cc
4cc
=45
4cc#
2dd
4dd
=46
2.ee-
4ee-
=47
4ee
2ff
4ff
=48
4ff
2ff#
4ff#
=49
4gg
8ff
8ee
4a
8cc
8b
=50
2.cc
4ccc
=51
4ccc#
2ddd
4ddd
=52
2.eee-
4bb-
=53
4bb
2ccc
4ccc
=54
2.ccc#
4ggg#
=55
4aaa
2bbb-
4bbb-
=56
4bbb-
4bbb
4bbb
4ggg
=57
8cccc
8gggg
8ffff
8eeee
4aaa
8cccc
8bbb
=58
*M5/4
2cccc
4r
2r
=59
*M4/4
32E
32F
32E
32D#
24E
24e
24c
32G
32A
32G
32F#
24G
24g
24c
32F
32G
32F
32E
24F
24f
24c
32E
32F
32E
32D
24E
24e
24c
=60
32D
32E
32D
32C#
24D
24d
24A
32E
32F
32E
32D#
24E
24e
24B
32C
32D
32C
32BB
24C
24c
24G
32A
32B
32A
32G#
24A
24a
24c
=61
32G
32A
32G
32F#
24G
24g
24c
32c
32d
32c
32B
24c
24cc
24g
32B
32c
32B
32A#
24B
24b
24f
32e
32f
32e
32d#
24e
24ee
24g
=62
32d
32e
32d
32c#
24d
24dd
24g
32c
32d
32c
32B
24c
24dd
24f#
32g
32a
32g
32f#
24g
24gg
24dd
32dd
32ee
32dd
32cc#
24dd
24ddd
24gg
=63
32ee
32ff
32ee
32dd#
24ee
24eee
24ccc
32gg
32aa
32gg
32ff#
24gg
24ggg
24ccc
32ff
32gg
32ff
32ee
24ff
24fff
24ccc
32ee
32ff
32ee
32dd#
24ee
24eee
24ccc
=64
32aa
32bb
32aa
32gg#
24aa
24ddd
24aaa
32bb
32ccc
32bb
32aa#
24bb
24ddd
24bbb
32ccc
32ddd
32ccc
32bb
24ccc
24eee
24cccc
32ddd
32eee
32ddd
32ccc#
24ddd
24aaa
24dddd
=65
32eee
32fff
32eee
32ddd#
24eee
24ggg#
24eeee
32aa
32bb
32aa
32gg#
24aa
24ccc
24aaa
32bb
32ccc
32bb
32aa#
24bb
24ddd
24bbb
32aaa
32ggg#
32fff
32eee
24ddd
24fff
24eee
=66
*M3/4
32aa
32bb
32aa
32bb
32aa
32bb
32aa
32bb
32aa
32bb
32aa
32bb
32aa
32bb
32aa
32bb
32gg#
32aa
32bb
32ccc
32ddd
32eee-
32eee
32eee-
=67
*M2/4
32fff
32eee
32ddd
32ccc
32bb
32aa
32gg#
32aa
24ccc
24bb
24aa
24gg
24ff#
24ff
=68
*M4/4
8ee
8aa
8ff#
8gg
8gg
8ff
8ff
8ee
=69
8aa
8dd
8bb-
8bb
8bb
8ccc
32a
32b
32a
32g#
24a
24aa
24cc
=70
4gg
32cc
32dd
32cc
32b
24cc
24ccc
24gg
4bb
4ccc
=71
4ddd
4ddd
4ddd
4r
=72
8e-
8e
8a
8g
8g
8f
8cc#
8b-
=73
8a
8aa
8bb
8dd
24c
24a
24cc
24cc
24aa
24ccc
24ddd
24aa
24dd
24dd
24a
24d
=74
24e
24g#
24ee
24ee
24gg#
24eee
8ddd
8ccc
24b
24dd
24bb
24bb
24ddd
24bbb
8aaa
8ggg#
=75
4aaa
2aa
24a
24b
24a
24g#
24a
24b-
=76
24b
24cc
24b
24a#
24b
24bb
32ff#
32gg
32ff#
32ee
24ff#
24fff#
24bb
32gg
32aa
32gg
32ff#
24gg
24ggg
24bb
32bb
32ccc
32bb
32aa#
24bb
24bbb
24fff
=77
*M5/4
24ccc
24cccc
24bbb
24bbb-
24aaa
24ggg#
24ggg
24fff#
24fff
24eee
24eee-
24ddd
24ccc#
24ccc
24bb
24bb-
24aa
24gg#
24gg
24ff#
24ff
32ee
32ee-
32dd
32cc#
24cc
24dd
24cc
24b
24cc
24cc#
=78
*M4/4
24dd
24ee-
24dd
24cc#
24dd
24ddd
32aa
32bb-
32aa
32gg#
24aa
24aaa
24ddd
32gg
32aa
32gg
32ff#
24gg
24ggg
24ddd
32ddd
32eee-
32ddd
32ccc#
24ddd
24dddd
24ggg#
=79
24eee-
24eeee-
24dddd
24cccc#
24cccc
24bbb
24bbb-
24aaa
24ggg#
24ggg
24fff#
24fff
24eee
24eee-
24fff
24eee
24eee-
24ddd
24ccc#
24ccc
24bb
24bb-
24aa
24gg#
=80
24gg
24ff#
24ff
24ee
24ee-
24dd
24cc#
24cc
24b
24b-
24a
24g#
24g
24f#
24f
24e
24e-
24d
4ff
=81
4fff
2fff#
24f#
24b-
24ff#
24ff#
24bb-
24fff#
=82
4ggg
24ddd
24ggg
24ff
24fff
24ccc
24eee
8eee
8ddd
8ccc
8bb
=83
*M5/4
32c
32d
32c
32B
32c
32d
32e
32f
28g
28a
28b
28cc
28dd
28cc
28b
36cc
36dd
36ee
36ff
36gg
36aa
36bb
36ccc
36ddd
36ccc
36bb
36ccc
36ddd
36eee
36fff
36ggg
36aaa
36bbb
4cccc
=84
*M3/4
2c
4c
=85
4c
4c
4c
=86
16c
16e-
16c#
16c
2B-
=87
16c
16e-
16c#
16c
4B-
8c
8G#
=88
4G#
8F##
8G#
4e-[
=89
8e-]
8e
8f#
8g#
12a#
12b
12cc#
=90
16ee-
16ff#
16ee
16dd#
2cc#
=91
8.ee-
16b
4b
8a#
8b
=92
4gg#
12ff#
12ff
12ee-
4bb
=93
*M1/4
20.aa#
40gg#[
20.gg#]
40ff#
20ff#
=94
*M2/4
8aa
8fff#
12eee
12ddd
12ccc#
=95
*M3/4
2ddd
8aa
16bb-
16bb
=96
2ccc
8eee-
16eee
16fff#
=97
2bb
8eee
16fff#
16ggg
=98
2ggg
16eee-
16eee
16fff#
16ggg
=99
4ggg
4ggg
4eee
=100
4fff#[
8fff#]
8ggg
8aaa
8bbb-
=101
*M2/4
8bbb-
16fff
16fff
16eee-
16eee-
16ddd
16ddd
=102
16ccc
16ccc
16ddd
16ddd
16bb-
16bb-
16gg#
16gg#
=103
16gg
16gg
16ff
16ff
16ee-
16ee-
16gg
16gg
=104
16ff
16ff
16ee-
16ee-
16dd
16dd
16ff
16ff
=105
16ee
16ff
16ff#
16gg
16gg#
16aa
16bb-
16bb
=106
16ccc
16ccc#
16ddd
16eee-
16eee
16fff
16ggg
16aaa
=107
4aaa
8r
8dd
=108
4.aa
8aa
=109
4bb-
8ddd
8ee
=110
4ff
8ccc
8dd
=111
8ee-
8eee-
8eee
8ee
=112
8ff
8fff
8fff#
8ff#
=113
16gg
16ee-
16ff
16gg
16gg#
16bb-
16ccc
16ddd
=114
16eee-
16fff
16ggg
16ggg#
16bbb-
16cccc
16dddd
16eeee-
=115
16gggg
16ffff#
16ffff
16eeee
16eeee-
16dddd
16cccc#
16cccc
=116
16bbb
16bbb-
16aaa
16ggg#
16ggg
16fff#
16fff
16eee
=117
16r
16ee
16ff#
16gg#
16aa
16bb
16ccc#
16ddd#
=118
16eee
16fff#
16ggg#
16aaa
16bbb
16cccc#
16dddd#
16eeee
=119
4ffff
4ccc[
=120
4ccc]
4ddd
=121
8eee
16ddd
16eee
4eee
=122
8f#
16ddd
16eee
4eee
=123
8f#
8eee
4eee
=124
4.eee
8eee
=125
4eee
24cc
24dd
24cc
24g
24a
24g
=126
24ee
24ff
24ee
24cc
24dd
24cc
24gg
24aa
24gg
24ee
24ff
24ee
=127
4aa
24cc
24dd
24cc
24aa
24gg
24aa
=128
24ee
24ff
24ee
24ccc
24ddd
24ccc
24aa
24bb
24aa
24eee
24fff
24eee
=129
4fff
24cc#
24dd
24cc#
24dd
24ee
24dd
=130
24cc#
24dd
24cc#
24dd
24ee
24dd
24ee
24ff
24ee
24ff
24gg
24ff
=131
24dd
24ee
24dd
24b
24cc
24b
24dd
24ee
24dd
24b
24cc
24b
=132
24ff
24gg
24ff
24dd
24ee
24dd
24aa
24bb
24aa
24ff
24gg
24ff
=133
24bb
24ccc
24bb
24gg
24aa
24gg
24ddd
24eee
24ddd
24bb
24ccc
24bb
=134
24fff
24ggg
24fff
24ddd
24eee
24ddd
24aaa
24bbb
24aaa
24fff
24ggg
24fff
=135
24bbb
24cccc
24bbb
24ggg
24aaa
24ggg
24cccc
24dddd
24cccc
24aaa
24bbb
24aaa
=136
24cccc#
24dddd
24cccc#
24aaa#
24bbb
24bbb-
24dddd
24eeee
24dddd
24bbb
24cccc
24bbb
=137
24ffff
24eeee
24dddd
24cccc#
24dddd
24eeee
24dddd
24cccc
24bbb
24aaa#
24bbb
24cccc
=138
24bbb
24aaa
24ggg
24fff#
24ggg
24aaa
24fff
24eee
24ddd
24ccc#
24ddd
24eee
=139
24ddd
24ccc
24bb
24aa#
24bb
24ccc
24bb
24aa
24gg
24ff#
24gg
24aa
=140
24ff
24ee
24dd
24cc#
24dd
24ee
24dd
24cc
24b
24a#
24b
24cc
=141
24b
24a
24g
24f#
24g
24a
24g
24g#
24a
24b-
24b
24cc
=142
24cc#
24dd
24ee-
24ee
24ff
24ff#
24gg
24gg#
24aa
24bb-
24bb
24ccc
=143
24ccc#
24ddd
24eee-
24eee
24fff
24fff#
24ggg
24ggg#
24aaa
24bbb-
24bbb
24cccc
=144
24cccc#
24dddd
24eeee-
24eeee
24ffff
24ffff#
8gggg
8g
=145
8f#
8f
8e
8d
=146
*M4/4
4ee
4r
4gg
4r
=147
2.ff
4ee
=148
4dd
4ee
4cc
4cc
=149
2cc
4b
4cc
=150
4dd
4r
4aa
4r
=151
2.gg
4ff
=152
4ee
4ff
4dd
4dd
=153
2dd
4cc
4dd
=154
4ee
4r
4ggg
4r
=155
2.fff
4eee
=156
4ddd
4eee
4ccc
4ccc
=157
2ccc
4bb
4ccc
=158
4ddd
4r
4aaa
4r
=159
2.ggg
4fff
=160
4eee
4fff
4bb
4ccc
=161
4ddd
4ee
4ff
4gg
=162
2aa
2bbb-
=163
2.aaa
4eee
=164
4ggg
4fff
4eee
4ddd
=165
4ccc#
4ddd
4eee
4fff
=166
2aa
2bbb-
=167
2.aaa
4eee
=168
2fff
2cccc
=169
2.bbb
4fff#
=170
2ggg
2cccc#
=171
2cccc#
4cccc
4ggg
=172
3bbb-
3ggg#
3fff#
=173
3fff
3eee-
3ccc#
=174
3ccc
3ee
3ff
=175
3ff#
3gg
3gg#
=176
2gg#
2aa[
=177
2aa]
2b
=178
4cc
4r
2r
=179
1r
=180
12f#
12e
12cc
12e-
12c
12g
12f#
12e
12cc
12b
12g
12ee
=181
12ee-
12cc
12gg
12b
12g
12ee
12ee-
12cc
12gg
12ff#
12ee
12ccc
=182
12bb
12gg
12eee
12ff#
12ee
12ccc
12ee-
12cc
12gg
12ff#
12ee
12ccc
=183
12bb
12gg
12eee
12eee-
12ccc
12ggg
12fff#
12eee
12cccc
12bbb
12ggg
12eeee
=184
4gggg
4r
4gg
4r
=185
4gg
4r
4bb
4r
=186
[2c
6c]
6e
6g
=187
6cc
6ee
6gg
6ccc
6eee
6ggg
=188
6cccc
6eeee
6gggg
4ccccc
4r
=189
4cc
4r
4ccc
4r
=190
1c
==
*-
